X: 40768
T: Tourist, The
R: hornpipe
M: 4/4
K: Gmajor
GA|BDDE DEGA|BDDE D2 AB|cEEc EEcE|dFFd EEcE|
BDDE DEGA|BDDE D2 AB|cEEd FFEF|G2 GF G2:|
GA|BDDB BAGA|BAGE D2AB|cEEc EEcE|dFFd EEcE|
BDDB BAGA|BAGE D2AB|cEEd FFEF|G2 GF G2:|
GA|BDDB DDBD|BDGB DDAB|cEEc EEcE|dFFd EEcE|
BDDB DDBD|BDGB DDAB|cEEd FFEF|G2 GF G2:|
GA|BDDd DDBD|DddD BDGB|cEEc EEcE|dFFd EEcE|
BDDd DDBD|DddD BDGB|cEEd FFEF|G2 GF G2:|

